X:204
T:Duchess of Hamilton
R:Strathspey
C:John Bowie
B:The Athole Collection
M:C
L:1/8
K:G
c|B<G G>A =F>GA>c|B<G G>D B,<D G,>c|B<G G>A =F>GA>c|
B>dA>c| B>GG:|
e/f/|g<d d>B g<d d>f|g>d g/a/b a<e e>f|g>dd>B g<d e>c|B>gA>c B<G G>f|
g<d d>B g<d d>f|g>d g/a/b a<e e>f|gdA>c B>GG||
